papirus/48x48/apps/cherrytree.svg

<svg height="48" viewBox="0 0 48 48.000001" width="48" xmlns="http://www.w3.org/2000/svg"><g transform="translate(2 -1002.3622)"><path d="m29.5 1031.8622c0 0-3.591868-6.4332-4-10-.498419-4.3559 2-13 2-13" fill="none" stroke="#1f711f" stroke-linecap="round" stroke-linejoin="round" stroke-width="5"/><path d="m13.5 1033.8622c0 0 .487719-10.5628 3-15 2.441498-4.3122 11-10 11-10" fill="none" stroke="#248424" stroke-linecap="round" stroke-linejoin="round" stroke-width="5"/><path d="m27.453125 1.9824219a2.50025 2.50025 0 0 0 -1.335937.4355469c0 0-2.225599 1.478325-4.765626 3.515625-2.540026 2.0374-5.42171 4.5000372-7.027343 7.3359372-1.641017 2.8983-2.291676 6.740341-2.744141 10.056641-.452465 3.3163-.578125 6.058594-.578125 6.058594a2.5007042 2.5007042 0 0 0  .03125.519531c.03229-.602786.155047-2.708207.546875-5.580078.452465-3.3163 1.103124-7.158341 2.744141-10.056641 1.605633-2.8359 4.487317-5.2985374 7.027343-7.3359374 2.540027-2.0373 4.765626-3.515625 4.765626-3.515625a2.50025 2.50025 0 0 1 1.335937-.4355468 2.50025 2.50025 0 0 1  2.523437 1.9980468 2.50025 2.50025 0 0 0 -2.523437-2.9960937z" fill="#fff" fill-rule="evenodd" opacity=".1" overflow="visible" transform="translate(0 1004.3622)"/><path d="m29.976562 3.9785156a2.50025 2.50025 0 0 1 -1.09375 1.6015625c.000001 0-2.052744 1.3673532-4.402343 3.2519531-2.349599 1.8845998-4.968823 4.4220378-5.804688 5.8984378-.871264 1.5388-1.72116 5.195131-2.140625 8.269531-.419465 3.0744-.537109 5.613281-.537109 5.613281a2.5007042 2.5007042 0 0 1 -4.964844.291016c-.005.09382-.03125.480469-.03125.480469a2.5007042 2.5007042 0 1 0 4.996094.230468c0 0 .117644-2.538881.537109-5.613281.419465-3.0744 1.269361-6.730731 2.140625-8.269531.835865-1.4764 3.455089-4.013838 5.804688-5.8984376 2.349599-1.8846 4.402344-3.2519532 4.402343-3.2519532a2.50025 2.50025 0 0 0 1.09375-2.6035156z" fill-rule="evenodd" opacity=".2" overflow="visible" transform="translate(0 1004.3622)"/><circle cx="30" cy="1032.3622" fill="#c72828" r="10"/><g transform="translate(17 -4)"><path d="m13 22a10 10 0 0 0 -10 10 10 10 0 0 0  .0214844.585938 10 10 0 0 1  9.9785156-9.585938 10 10 0 0 1  9.978516 9.414062 10 10 0 0 0  .021484-.414062 10 10 0 0 0 -10-10z" fill="#fff" opacity=".2" transform="translate(0 1004.3622)"/><path d="m22.978516 31.414062a10 10 0 0 1 -9.978516 9.585938 10 10 0 0 1 -9.9785156-9.414062 10 10 0 0 0 -.0214844.414062 10 10 0 0 0  10 10 10 10 0 0 0  10-10 10 10 0 0 0 -.021484-.585938z" opacity=".3" transform="translate(0 1004.3622)"/></g><circle cx="13" cy="1036.3622" fill="#ff3737" r="10"/><path d="m13 22a10 10 0 0 0 -10 10 10 10 0 0 0  .0214844.585938 10 10 0 0 1  9.9785156-9.585938 10 10 0 0 1  9.978516 9.414062 10 10 0 0 0  .021484-.414062 10 10 0 0 0 -10-10z" fill="#fff" opacity=".2" transform="translate(0 1004.3622)"/><path d="m22.978516 31.414062a10 10 0 0 1 -9.978516 9.585938 10 10 0 0 1 -9.9785156-9.414062 10 10 0 0 0 -.0214844.414062 10 10 0 0 0  10 10 10 10 0 0 0  10-10 10 10 0 0 0 -.021484-.585938z" opacity=".3" transform="translate(0 1004.3622)"/></g></svg>

<?xml version="1.0" encoding="UTF-8" standalone="no"?>
<!-- Created with Inkscape (http://www.inkscape.org/) -->

<svg
   xmlns:dc="http://purl.org/dc/elements/1.1/"
   xmlns:cc="http://creativecommons.org/ns#"
   xmlns:rdf="http://www.w3.org/1999/02/22-rdf-syntax-ns#"
   xmlns:svg="http://www.w3.org/2000/svg"
   xmlns="http://www.w3.org/2000/svg"
   xmlns:sodipodi="http://sodipodi.sourceforge.net/DTD/sodipodi-0.dtd"
   xmlns:inkscape="http://www.inkscape.org/namespaces/inkscape"
   width="48"
   height="48"
   viewBox="0 0 48 48.000001"
   id="svg2"
   version="1.1"
   inkscape:version="0.91 r13725"
   sodipodi:docname="cherrytree.svg">
  <defs
     id="defs4" />
  <sodipodi:namedview
     id="base"
     pagecolor="#ffffff"
     bordercolor="#666666"
     borderopacity="1.0"
     inkscape:pageopacity="0.0"
     inkscape:pageshadow="2"
     inkscape:zoom="1"
     inkscape:cx="15.702277"
     inkscape:cy="29.061161"
     inkscape:document-units="px"
     inkscape:current-layer="layer1"
     showgrid="false"
     units="px"
     inkscape:window-width="1600"
     inkscape:window-height="849"
     inkscape:window-x="0"
     inkscape:window-y="0"
     inkscape:window-maximized="1" />
  <metadata
     id="metadata7">
    <rdf:RDF>
      <cc:Work
         rdf:about="">
        <dc:format>image/svg+xml</dc:format>
        <dc:type
           rdf:resource="http://purl.org/dc/dcmitype/StillImage" />
        <dc:title></dc:title>
      </cc:Work>
    </rdf:RDF>
  </metadata>
  <g
     inkscape:label="Layer 1"
     inkscape:groupmode="layer"
     id="layer1"
     transform="translate(0,-1004.3622)">
    <g
       id="g4182"
       transform="translate(2,2)">
      <path
         sodipodi:nodetypes="cac"
         inkscape:connector-curvature="0"
         id="path4148"
         d="m 29.5,1031.8622 c 0,0 -3.591868,-6.4332 -4,-10 -0.498419,-4.3559 2,-13 2,-13"
         style="fill:none;fill-rule:evenodd;stroke:#1f711f;stroke-width:5;stroke-linecap:round;stroke-linejoin:round;stroke-miterlimit:4;stroke-dasharray:none;stroke-opacity:1" />
      <path
         sodipodi:nodetypes="cac"
         inkscape:connector-curvature="0"
         id="path4146"
         d="m 13.5,1033.8622 c 0,0 0.487719,-10.5628 3,-15 2.441498,-4.3122 11,-10 11,-10"
         style="fill:none;fill-rule:evenodd;stroke:#248424;stroke-width:5;stroke-linecap:round;stroke-linejoin:round;stroke-miterlimit:4;stroke-dasharray:none;stroke-opacity:1" />
      <path
         id="path4174"
         transform="translate(0,1004.3622)"
         d="m 27.453125,1.9824219 a 2.50025,2.50025 0 0 0 -1.335937,0.4355469 c 0,0 -2.225599,1.478325 -4.765626,3.515625 -2.540026,2.0374 -5.42171,4.5000372 -7.027343,7.3359372 -1.641017,2.8983 -2.291676,6.740341 -2.744141,10.056641 -0.452465,3.3163 -0.578125,6.058594 -0.578125,6.058594 a 2.5007042,2.5007042 0 0 0 0.03125,0.519531 c 0.03229,-0.602786 0.155047,-2.708207 0.546875,-5.580078 0.452465,-3.3163 1.103124,-7.158341 2.744141,-10.056641 1.605633,-2.8359 4.487317,-5.2985374 7.027343,-7.3359374 2.540027,-2.0373 4.765626,-3.515625 4.765626,-3.515625 a 2.50025,2.50025 0 0 1 1.335937,-0.4355468 2.50025,2.50025 0 0 1 2.523437,1.9980468 2.50025,2.50025 0 0 0 -2.523437,-2.9960937 z"
         style="color:#000000;font-style:normal;font-variant:normal;font-weight:normal;font-stretch:normal;font-size:medium;line-height:normal;font-family:sans-serif;text-indent:0;text-align:start;text-decoration:none;text-decoration-line:none;text-decoration-style:solid;text-decoration-color:#000000;letter-spacing:normal;word-spacing:normal;text-transform:none;direction:ltr;block-progression:tb;writing-mode:lr-tb;baseline-shift:baseline;text-anchor:start;white-space:normal;clip-rule:nonzero;display:inline;overflow:visible;visibility:visible;opacity:0.1;isolation:auto;mix-blend-mode:normal;color-interpolation:sRGB;color-interpolation-filters:linearRGB;solid-color:#000000;solid-opacity:1;fill:#ffffff;fill-opacity:1;fill-rule:evenodd;stroke:none;stroke-width:5;stroke-linecap:round;stroke-linejoin:round;stroke-miterlimit:4;stroke-dasharray:none;stroke-dashoffset:0;stroke-opacity:1;color-rendering:auto;image-rendering:auto;shape-rendering:auto;text-rendering:auto;enable-background:accumulate"
         inkscape:connector-curvature="0" />
      <path
         id="path4170"
         transform="translate(0,1004.3622)"
         d="m 29.976562,3.9785156 a 2.50025,2.50025 0 0 1 -1.09375,1.6015625 c 10e-7,0 -2.052744,1.3673532 -4.402343,3.2519531 -2.349599,1.8845998 -4.968823,4.4220378 -5.804688,5.8984378 -0.871264,1.5388 -1.72116,5.195131 -2.140625,8.269531 -0.419465,3.0744 -0.537109,5.613281 -0.537109,5.613281 a 2.5007042,2.5007042 0 0 1 -4.964844,0.291016 c -0.005,0.09382 -0.03125,0.480469 -0.03125,0.480469 a 2.5007042,2.5007042 0 1 0 4.996094,0.230468 c 0,0 0.117644,-2.538881 0.537109,-5.613281 0.419465,-3.0744 1.269361,-6.730731 2.140625,-8.269531 0.835865,-1.4764 3.455089,-4.013838 5.804688,-5.8984376 2.349599,-1.8846 4.402344,-3.2519532 4.402343,-3.2519532 a 2.50025,2.50025 0 0 0 1.09375,-2.6035156 z"
         style="color:#000000;font-style:normal;font-variant:normal;font-weight:normal;font-stretch:normal;font-size:medium;line-height:normal;font-family:sans-serif;text-indent:0;text-align:start;text-decoration:none;text-decoration-line:none;text-decoration-style:solid;text-decoration-color:#000000;letter-spacing:normal;word-spacing:normal;text-transform:none;direction:ltr;block-progression:tb;writing-mode:lr-tb;baseline-shift:baseline;text-anchor:start;white-space:normal;clip-rule:nonzero;display:inline;overflow:visible;visibility:visible;opacity:0.2;isolation:auto;mix-blend-mode:normal;color-interpolation:sRGB;color-interpolation-filters:linearRGB;solid-color:#000000;solid-opacity:1;fill:#000000;fill-opacity:1;fill-rule:evenodd;stroke:none;stroke-width:5;stroke-linecap:round;stroke-linejoin:round;stroke-miterlimit:4;stroke-dasharray:none;stroke-dashoffset:0;stroke-opacity:1;color-rendering:auto;image-rendering:auto;shape-rendering:auto;text-rendering:auto;enable-background:accumulate"
         inkscape:connector-curvature="0" />
      <circle
         r="10"
         style="opacity:1;fill:#c72828;fill-opacity:1;stroke:none;stroke-width:1;stroke-linecap:round;stroke-linejoin:round;stroke-miterlimit:3.42860007;stroke-dasharray:none;stroke-opacity:1"
         id="circle4138"
         cx="30"
         cy="1032.3622" />
      <g
         transform="translate(17,-4)"
         id="g4164">
        <path
           inkscape:connector-curvature="0"
           id="path4166"
           transform="translate(0,1004.3622)"
           d="M 13,22 A 10,10 0 0 0 3,32 10,10 0 0 0 3.0214844,32.585938 10,10 0 0 1 13,23 10,10 0 0 1 22.978516,32.414062 10,10 0 0 0 23,32 10,10 0 0 0 13,22 Z"
           style="opacity:0.2;fill:#ffffff;fill-opacity:1;stroke:none;stroke-width:1;stroke-linecap:round;stroke-linejoin:round;stroke-miterlimit:3.42860007;stroke-dasharray:none;stroke-opacity:1" />
        <path
           inkscape:connector-curvature="0"
           id="path4168"
           transform="translate(0,1004.3622)"
           d="M 22.978516,31.414062 A 10,10 0 0 1 13,41 10,10 0 0 1 3.0214844,31.585938 10,10 0 0 0 3,32 10,10 0 0 0 13,42 10,10 0 0 0 23,32 10,10 0 0 0 22.978516,31.414062 Z"
           style="opacity:0.3;fill:#000000;fill-opacity:1;stroke:none;stroke-width:1;stroke-linecap:round;stroke-linejoin:round;stroke-miterlimit:3.42860007;stroke-dasharray:none;stroke-opacity:1" />
      </g>
      <circle
         r="10"
         cy="1036.3622"
         cx="13"
         id="path4136"
         style="opacity:1;fill:#ff3737;fill-opacity:1;stroke:none;stroke-width:1;stroke-linecap:round;stroke-linejoin:round;stroke-miterlimit:3.42860007;stroke-dasharray:none;stroke-opacity:1" />
      <g
         id="g4160">
        <path
           style="opacity:0.2;fill:#ffffff;fill-opacity:1;stroke:none;stroke-width:1;stroke-linecap:round;stroke-linejoin:round;stroke-miterlimit:3.42860007;stroke-dasharray:none;stroke-opacity:1"
           d="M 13,22 A 10,10 0 0 0 3,32 10,10 0 0 0 3.0214844,32.585938 10,10 0 0 1 13,23 10,10 0 0 1 22.978516,32.414062 10,10 0 0 0 23,32 10,10 0 0 0 13,22 Z"
           transform="translate(0,1004.3622)"
           id="circle4150"
           inkscape:connector-curvature="0" />
        <path
           style="opacity:0.3;fill:#000000;fill-opacity:1;stroke:none;stroke-width:1;stroke-linecap:round;stroke-linejoin:round;stroke-miterlimit:3.42860007;stroke-dasharray:none;stroke-opacity:1"
           d="M 22.978516,31.414062 A 10,10 0 0 1 13,41 10,10 0 0 1 3.0214844,31.585938 10,10 0 0 0 3,32 10,10 0 0 0 13,42 10,10 0 0 0 23,32 10,10 0 0 0 22.978516,31.414062 Z"
           transform="translate(0,1004.3622)"
           id="circle4155"
           inkscape:connector-curvature="0" />
      </g>
    </g>
  </g>
</svg>
